{"type": "map", "version": "1.10", "tiledversion": "1.11.0", "orientation": "orthogonal", "renderorder": "right-down", "width": 14, "height": 10, "tilewidth": 16, "tileheight": 16, "infinite": false, "backgroundcolor": "#353738", "nextlayerid": 4, "nextobjectid": 14, "compressionlevel": -1, "layers": [{"type": "tilelayer", "id": 1, "name": "floor", "x": 0, "y": 0, "width": 14, "height": 10, "opacity": 1, "visible": true, "data": [23, 24, 24, 17, 24, 24, 24, 24, 24, 24, 24, 17, 24, 25, 30, 7, 7, 7, 7, 7, 7, 7, 7, 7, 7, 7, 7, 32, 30, 7, 7, 7, 7, 7, 7, 7, 7, 7, 7, 7, 7, 32, 30, 7, 7, 7, 7, 7, 7, 7, 7, 7, 7, 7, 7, 32, 30, 7, 7, 7, 7, 7, 7, 7, 7, 7, 7, 7, 7, 32, 30, 7, 7, 7, 7, 7, 7, 7, 7, 7, 7, 7, 7, 32, 30, 7, 7, 7, 7, 7, 7, 7, 7, 7, 7, 7, 7, 32, 30, 7, 7, 7, 7, 7, 7, 7, 7, 7, 7, 7, 7, 32, 37, 12, 12, 12, 12, 12, 12, 51, 12, 12, 12, 12, 12, 39, 0, 0, 0, 0, 0, 0, 0, 0, 0, 0, 0, 0, 0, 0]}, {"type": "objectgroup", "id": 2, "name": "furniture", "x": 0, "y": 0, "opacity": 1, "visible": true, "draworder": "topdown", "objects": [{"id": 1, "name": "bookshelf", "type": "furniture", "gid": 82, "x": 32, "y": 48, "width": 64, "height": 32, "rotation": 0, "visible": true, "properties": [{"name": "item", "type": "string", "value": "bookshelf"}, {"name": "kind", "type": "string", "value": "bookshelf"}, {"name": "entryX", "type": "int", "value": 4}, {"name": "entryY", "type": "int", "value": 3}]}, {"id": 2, "name": "painting-field", "type": "furniture", "gid": 56, "x": 98, "y": 16, "width": 11, "height": 7, "rotation": 0, "visible": true, "properties": [{"name": "item", "type": "string", "value": "painting-field"}]}, {"id": 3, "name": "clock-round", "type": "furniture", "gid": 74, "x": 128, "y": 16, "width": 13, "height": 13, "rotation": 0, "visible": true, "properties": [{"name": "item", "type": "string", "value": "clock-round"}]}, {"id": 4, "name": "bed-pink", "type": "furniture", "gid": 66, "x": 176, "y": 48, "width": 14, "height": 22, "rotation": 0, "visible": true, "properties": [{"name": "item", "type": "string", "value": "bed-pink"}]}, {"id": 5, "name": "lamp-green", "type": "furniture", "gid": 61, "x": 162, "y": 32, "width": 10, "height": 11, "rotation": 0, "visible": true, "properties": [{"name": "item", "type": "string", "value": "lamp-green"}]}, {"id": 6, "name": "pot-sunflower", "type": "furniture", "gid": 58, "x": 17, "y": 32, "width": 11, "height": 15, "rotation": 0, "visible": true, "properties": [{"name": "item", "type": "string", "value": "pot-sunflower"}]}, {"id": 7, "name": "rug-green", "type": "furniture", "gid": 79, "x": 99, "y": 112, "width": 24, "height": 13, "rotation": 0, "visible": true, "properties": [{"name": "item", "type": "string", "value": "rug-green"}]}, {"id": 8, "name": "table", "type": "furniture", "gid": 68, "x": 112, "y": 80, "width": 14, "height": 14, "rotation": 0, "visible": true, "properties": [{"name": "item", "type": "string", "value": "table"}]}, {"id": 9, "name": "chair", "type": "furniture", "gid": 69, "x": 98, "y": 80, "width": 10, "height": 13, "rotation": 0, "visible": true, "properties": [{"name": "item", "type": "string", "value": "chair"}]}, {"id": 10, "name": "dresser", "type": "furniture", "gid": 67, "x": 192, "y": 80, "width": 14, "height": 16, "rotation": 0, "visible": true, "properties": [{"name": "item", "type": "string", "value": "dresser"}, {"name": "kind", "type": "string", "value": "wardrobe"}, {"name": "entryX", "type": "int", "value": 12}, {"name": "entryY", "type": "int", "value": 5}]}, {"id": 11, "name": "pot-sprout", "type": "furniture", "gid": 59, "x": 194, "y": 128, "width": 8, "height": 9, "rotation": 0, "visible": true, "properties": [{"name": "item", "type": "string", "value": "pot-sprout"}]}, {"id": 12, "name": "exit", "type": "exit", "x": 112, "y": 128, "width": 16, "height": 16, "rotation": 0, "visible": true, "properties": [{"name": "kind", "type": "string", "value": "exit"}, {"name": "entryX", "type": "int", "value": 7}, {"name": "entryY", "type": "int", "value": 7}, {"name": "facing", "type": "string", "value": "down"}]}, {"id": 13, "name": "spawn", "type": "spawn", "point": true, "x": 120.0, "y": 120.0, "width": 0, "height": 0, "rotation": 0, "visible": true}]}, {"type": "tilelayer", "id": 3, "name": "collision", "x": 0, "y": 0, "width": 14, "height": 10, "opacity": 1, "visible": false, "data": [83, 83, 83, 83, 83, 83, 83, 83, 83, 83, 83, 83, 83, 83, 83, 83, 83, 83, 83, 83, 0, 0, 0, 0, 83, 83, 0, 83, 83, 0, 83, 83, 83, 83, 0, 0, 0, 0, 0, 83, 0, 83, 83, 0, 0, 0, 0, 0, 0, 0, 0, 0, 0, 0, 0, 83, 83, 0, 0, 0, 0, 0, 83, 83, 0, 0, 0, 0, 83, 83, 83, 0, 0, 0, 0, 0, 0, 0, 0, 0, 0, 0, 0, 83, 83, 0, 0, 0, 0, 0, 0, 0, 0, 0, 0, 0, 0, 83, 83, 0, 0, 0, 0, 0, 0, 0, 0, 0, 0, 0, 83, 83, 83, 83, 83, 83, 83, 83, 83, 83, 83, 83, 83, 83, 83, 83, 83, 83, 83, 83, 83, 83, 83, 83, 83, 83, 83, 83, 83, 83]}], "tilesets": [{"firstgid": 1, "source": "../tilesets/walls.tsj"}, {"firstgid": 16, "source": "../tilesets/room.tsj"}, {"firstgid": 51, "source": "../tilesets/doors.tsj"}, {"firstgid": 55, "source": "../tilesets/furniture.tsj"}, {"firstgid": 83, "source": "../tilesets/collision.tsj"}]}
